X: 4
T: The New Custom House
R: reel
M: 4/4
L: 1/8
K: Dmix
|: A2 DE FGAB | cAGE CEFG | A2 DE FGAB | cGeG dcAG |A2 DE FGAB | cAGE CEFG | ADdD FGAB|cAGE AD ~D2 :||: Add^c d2 cd | ed^cd efge | Add^c d2 cd | eaag ed^cd |Add^c d2 cd | ed^cd efgb | a2 ba ge^cd | eaag ed^cd :|


Tune 175	Setting 28724

